icons/star.svg

<svg xmlns="http://www.w3.org/2000/svg" width="24" height="24" viewBox="0 0 24 24">
  <path d="M10.0978581,3.61800797 L8.57929,8.29181 L3.665,8.29181 C1.72755278,8.29181 0.921986667,10.7710711 2.48945901,11.9098346 L6.46517558,14.7983766 L4.94657291,19.4721848 C4.34786727,21.3148021 6.45683974,22.8470137 8.02425617,21.7082163 L11.999944,18.8196656 L15.9757168,21.7082185 C17.5430982,22.847005 19.6520744,21.3148379 19.0534712,19.4722283 L17.5347049,14.7984753 L21.5105869,11.9098158 C23.0780129,10.7710569 22.2724189,8.29181 20.335,8.29181 L15.4208063,8.29196629 L13.9021419,3.61800797 C13.3033612,1.77544734 10.6966388,1.77544734 10.0978581,3.61800797 Z"/>
</svg>

<svg xmlns="http://www.w3.org/2000/svg" viewBox="0 0 24 24">
  <path d="M10.1 3.62 8.58 8.29H3.66a2 2 0 0 0-1.17 3.62l3.98 2.89-1.52 4.67a2 2 0 0 0 3.07 2.24L12 18.82l3.98 2.89a2 2 0 0 0 3.07-2.24l-1.52-4.67 3.98-2.89a2 2 0 0 0-1.18-3.62h-4.9L13.9 3.62a2 2 0 0 0-3.8 0z"/>
</svg>
